formas-de-pagamento/caixa-v3.svg

<svg enable-background="new 0 0 60 40" height="40" viewBox="0 0 60 40" width="60" xmlns="http://www.w3.org/2000/svg"><switch><foreignObject height="1" requiredExtensions="http://ns.adobe.com/AdobeIllustrator/10.0/" width="1"/><g><path d="m60 35c0 2.75-2.25 5-5 5h-50c-2.75 0-5-2.25-5-5v-30c0-2.75 2.25-5 5-5h50c2.75 0 5 2.25 5 5z" fill="#f5f5f5"/><path d="m55 0h-50c-2.75 0-5 2.25-5 5v30c0 2.75 2.25 5 5 5h50c2.75 0 5-2.25 5-5v-30c0-2.75-2.25-5-5-5zm0 1c2.206 0 4 1.794 4 4v30c0 2.206-1.794 4-4 4h-50c-2.206 0-4-1.794-4-4v-30c0-2.206 1.794-4 4-4z" fill="#fff"/><path d="m25.143 20.775h8.787l6.022 9.973h-8.789z" fill="#116bb6"/><path d="m26.056 19.243h9.083l7.888-9.93h-9.083zm-9.083 11.566h9.083l7.888-10.052h-9.083z" fill="#f29a25"/><path d="m20.248 9.191h8.478l5.808 10.051h-8.478z" fill="#116bb6"/></g></switch></svg>

<?xml version="1.0" encoding="UTF-8"?>
<svg width="60px" height="40px" viewBox="0 0 60 40" version="1.1" xmlns="http://www.w3.org/2000/svg" xmlns:xlink="http://www.w3.org/1999/xlink">
    <!-- Generator: Sketch 52.4 (67378) - http://www.bohemiancoding.com/sketch -->
    <title>Artboard</title>
    <desc>Created with Sketch.</desc>
    <g id="Artboard" stroke="none" stroke-width="1" fill="none" fill-rule="evenodd">
        <g id="caixa-v3">
            <path d="M60,35 C60,37.75 57.75,40 55,40 L5,40 C2.25,40 0,37.75 0,35 L0,5 C0,2.25 2.25,0 5,0 L55,0 C57.75,0 60,2.25 60,5 L60,35 Z" id="Path" fill="#F5F5F5"></path>
            <path d="M55,0 L5,0 C2.25,0 0,2.25 0,5 L0,35 C0,37.75 2.25,40 5,40 L55,40 C57.75,40 60,37.75 60,35 L60,5 C60,2.25 57.75,0 55,0 Z M55,1 C57.206,1 59,2.794 59,5 L59,35 C59,37.206 57.206,39 55,39 L5,39 C2.794,39 1,37.206 1,35 L1,5 C1,2.794 2.794,1 5,1 L55,1 Z" id="Shape" fill="#D0D0D0" fill-rule="nonzero"></path>
            <polygon id="Path" fill="#116BB6" points="25.143 20.775 33.93 20.775 39.952 30.748 31.163 30.748"></polygon>
            <path d="M26.056,19.243 L35.139,19.243 L43.027,9.313 L33.944,9.313 L26.056,19.243 Z M16.973,30.809 L26.056,30.809 L33.944,20.757 L24.861,20.757 L16.973,30.809 Z" id="Shape" fill="#F29A25" fill-rule="nonzero"></path>
            <polygon id="Path" fill="#116BB6" points="20.248 9.191 28.726 9.191 34.534 19.242 26.056 19.242"></polygon>
        </g>
    </g>
</svg>
